src/img/icons/help.svg

<svg width="32" height="32" viewBox="0 0 32 32" fill="none" xmlns="http://www.w3.org/2000/svg">
<path d="M15.9838 24.2751C16.4045 24.2751 16.7599 24.1299 17.05 23.8396C17.3401 23.5491 17.4851 23.1933 17.4851 22.7723C17.4851 22.3516 17.3398 21.9962 17.0493 21.7061C16.7587 21.4163 16.4031 21.2714 15.9823 21.2714C15.5616 21.2714 15.2062 21.4167 14.9161 21.7072C14.626 21.9978 14.481 22.3534 14.481 22.7742C14.481 23.1949 14.6263 23.5503 14.9168 23.8404C15.2074 24.1302 15.5631 24.2751 15.9838 24.2751ZM16.0026 30C14.0662 30 12.246 29.6326 10.5422 28.8977C8.83839 28.1628 7.35635 27.1655 6.09611 25.9057C4.83586 24.646 3.83805 23.1646 3.10268 21.4615C2.36756 19.7584 2 17.9388 2 16.0026C2 14.0662 2.36744 12.246 3.10232 10.5422C3.83719 8.83839 4.83451 7.35635 6.09426 6.09611C7.35402 4.83586 8.83544 3.83805 10.5385 3.10268C12.2416 2.36756 14.0612 2 15.9974 2C17.9338 2 19.754 2.36744 21.4578 3.10232C23.1616 3.83719 24.6437 4.83451 25.9039 6.09426C27.1641 7.35402 28.1619 8.83544 28.8973 10.5385C29.6324 12.2416 30 14.0612 30 15.9974C30 17.9338 29.6326 19.754 28.8977 21.4578C28.1628 23.1616 27.1655 24.6437 25.9057 25.9039C24.646 27.1641 23.1646 28.1619 21.4615 28.8973C19.7584 29.6324 17.9388 30 16.0026 30ZM16 27.7895C19.2912 27.7895 22.0789 26.6474 24.3632 24.3632C26.6474 22.0789 27.7895 19.2912 27.7895 16C27.7895 12.7088 26.6474 9.92105 24.3632 7.63684C22.0789 5.35263 19.2912 4.21053 16 4.21053C12.7088 4.21053 9.92105 5.35263 7.63684 7.63684C5.35263 9.92105 4.21053 12.7088 4.21053 16C4.21053 19.2912 5.35263 22.0789 7.63684 24.3632C9.92105 26.6474 12.7088 27.7895 16 27.7895ZM16.1194 9.69153C16.7992 9.69153 17.3876 9.90558 17.8845 10.3337C18.3816 10.7618 18.6302 11.2969 18.6302 11.9389C18.6302 12.4792 18.4714 12.9629 18.1538 13.3897C17.8365 13.8169 17.4737 14.2146 17.0655 14.5831C16.5305 15.0576 16.0596 15.5796 15.6526 16.1492C15.2456 16.7185 15.028 17.3527 14.9997 18.0517C14.9902 18.3202 15.0846 18.5451 15.2831 18.7263C15.4815 18.9076 15.7129 18.9982 15.9772 18.9982C16.2606 18.9982 16.5006 18.9038 16.6971 18.7149C16.8935 18.526 17.0192 18.2946 17.0739 18.0208C17.1722 17.5143 17.3815 17.0633 17.7017 16.6676C18.022 16.2716 18.3689 15.8952 18.7425 15.5384C19.2797 15.0147 19.7484 14.4439 20.1488 13.8259C20.5494 13.2077 20.7497 12.5183 20.7497 11.7576C20.7497 10.59 20.2896 9.63061 19.3696 8.87953C18.4495 8.12868 17.3754 7.75326 16.1474 7.75326C15.2708 7.75326 14.4442 7.9473 13.6675 8.33537C12.8911 8.72369 12.2866 9.29007 11.8538 10.0345C11.7197 10.2632 11.6767 10.5038 11.7248 10.7563C11.7727 11.009 11.9023 11.2008 12.1135 11.3317C12.3825 11.4813 12.6587 11.5241 12.9421 11.4599C13.2255 11.3956 13.4664 11.2341 13.6646 10.9755C13.9632 10.5881 14.3247 10.2773 14.7488 10.043C15.173 9.80868 15.6299 9.69153 16.1194 9.69153Z" fill="#131212"/>
</svg>

<svg xmlns="http://www.w3.org/2000/svg" viewBox="0 0 32 32">
  <path fill="currentColor" d="M15.984 24.275c.42 0 .776-.145 1.066-.435.29-.29.435-.647.435-1.068 0-.42-.145-.776-.436-1.066a1.453 1.453 0 0 0-1.067-.435c-.42 0-.776.146-1.066.436-.29.29-.435.646-.435 1.067 0 .42.145.776.436 1.066.29.29.646.435 1.067.435ZM16.003 30c-1.937 0-3.757-.367-5.46-1.102a14.14 14.14 0 0 1-4.447-2.992 14.138 14.138 0 0 1-2.993-4.444C2.368 19.758 2 17.939 2 16.002c0-1.936.367-3.756 1.102-5.46a14.14 14.14 0 0 1 2.992-4.446 14.14 14.14 0 0 1 4.445-2.993C12.242 2.368 14.06 2 15.997 2c1.937 0 3.757.367 5.46 1.102a14.14 14.14 0 0 1 4.447 2.992 14.14 14.14 0 0 1 2.993 4.445C29.632 12.242 30 14.06 30 15.997c0 1.937-.367 3.757-1.102 5.46a14.14 14.14 0 0 1-2.992 4.447 14.14 14.14 0 0 1-4.444 2.993c-1.704.735-3.523 1.103-5.46 1.103ZM16 27.79c3.291 0 6.079-1.143 8.363-3.427S27.79 19.291 27.79 16c0-3.291-1.143-6.079-3.427-8.363S19.291 4.21 16 4.21c-3.291 0-6.079 1.142-8.363 3.426C5.353 9.92 4.21 12.709 4.21 16c0 3.291 1.142 6.079 3.426 8.363C9.92 26.647 12.709 27.79 16 27.79Zm.12-18.098c.68 0 1.268.214 1.764.642.498.428.746.963.746 1.605 0 .54-.159 1.024-.476 1.45-.317.428-.68.826-1.088 1.194a9.372 9.372 0 0 0-1.413 1.566A3.444 3.444 0 0 0 15 18.052a.833.833 0 0 0 .283.674c.199.182.43.272.694.272a1 1 0 0 0 .72-.283 1.29 1.29 0 0 0 .377-.694 3.02 3.02 0 0 1 .628-1.353c.32-.396.667-.773 1.04-1.13a9.917 9.917 0 0 0 1.407-1.712c.4-.618.6-1.308.6-2.068 0-1.168-.46-2.127-1.38-2.878-.92-.751-1.994-1.127-3.222-1.127-.876 0-1.703.194-2.48.582a4.254 4.254 0 0 0-1.813 1.7 1.01 1.01 0 0 0-.13.721.828.828 0 0 0 .39.576c.268.15.545.192.828.128.284-.064.524-.226.723-.485.298-.387.66-.698 1.084-.932a2.79 2.79 0 0 1 1.37-.351Z"/>
</svg>
